Numix/64/mimetypes/application-x-amiga-disk-format.svg

<?xml version="1.0" encoding="UTF-8" standalone="no"?>
<svg
   xmlns:dc="http://purl.org/dc/elements/1.1/"
   xmlns:cc="http://creativecommons.org/ns#"
   xmlns:rdf="http://www.w3.org/1999/02/22-rdf-syntax-ns#"
   xmlns:svg="http://www.w3.org/2000/svg"
   xmlns="http://www.w3.org/2000/svg"
   xmlns:sodipodi="http://sodipodi.sourceforge.net/DTD/sodipodi-0.dtd"
   xmlns:inkscape="http://www.inkscape.org/namespaces/inkscape"
   width="64"
   height="64"
   viewBox="0 0 64 64"
   id="svg2"
   version="1.1"
   inkscape:version="0.91 r13725"
   sodipodi:docname="application-floppy-7-.svg">
  <metadata
     id="metadata14">
    <rdf:RDF>
      <cc:Work
         rdf:about="">
        <dc:format>image/svg+xml</dc:format>
        <dc:type
           rdf:resource="http://purl.org/dc/dcmitype/StillImage" />
        <dc:title></dc:title>
      </cc:Work>
    </rdf:RDF>
  </metadata>
  <defs
     id="defs12" />
  <sodipodi:namedview
     pagecolor="#ffffff"
     bordercolor="#666666"
     borderopacity="1"
     objecttolerance="10"
     gridtolerance="10"
     guidetolerance="10"
     inkscape:pageopacity="0"
     inkscape:pageshadow="2"
     inkscape:window-width="1920"
     inkscape:window-height="1013"
     id="namedview10"
     showgrid="false"
     inkscape:zoom="1"
     inkscape:cx="57.121532"
     inkscape:cy="30.340442"
     inkscape:window-x="0"
     inkscape:window-y="27"
     inkscape:window-maximized="1"
     inkscape:current-layer="svg2"
     showguides="false">
    <inkscape:grid
       type="xygrid"
       id="grid2991"
       empspacing="5"
       visible="true"
       enabled="true"
       snapvisiblegridlinesonly="true" />
  </sodipodi:namedview>
  <path
     style="fill:#dcdcdc;fill-opacity:1"
     d="M 10.671776,5.94e-4 C 9.296828,6.24e-4 8,1.353576 8,2.788062 L 8,61.212536 C 8,62.565514 9.374948,64 10.671776,64 l 42.654664,0 c 1.296828,0 2.671776,-1.434486 2.671776,-2.787464 L 56,18 38,0 z"
     id="path4-1"
     inkscape:connector-curvature="0"
     sodipodi:nodetypes="ssssssccs" />
  <path
     style="fill:#000000;fill-opacity:0.19599998"
     d="M 42,18 56,32 56,18 z"
     id="path6-4"
     inkscape:connector-curvature="0"
     sodipodi:nodetypes="cccc" />
  <path
     style="fill:#ffffff;fill-opacity:0.39200003"
     d="M 38.000612,5.94e-4 55.9838,18 40.757276,18 c -1.345902,0 -2.756664,-1.42698 -2.756664,-2.77288 z"
     id="path8-6"
     inkscape:connector-curvature="0"
     sodipodi:nodetypes="ccssc" />
  <path
     style="fill:#888888;fill-opacity:1"
     d="m 19,49 c 0.0091,-9.134859 0.02406,-16.361098 0,-26 l 22.04981,0 c 1.4017,1.340223 2.66991,2.801177 3.95019,4.254545 L 45,49 Z M 41,36 23,36 23,48 31.952699,48 41,48 Z m -3,-12 -12,0 0,8 12,0 z m -6,1 4,0 0,6 -4,0 z"
     id="path4138"
     inkscape:connector-curvature="0"
     sodipodi:nodetypes="cccccccccccccccccccccc" />
</svg>

<svg xmlns="http://www.w3.org/2000/svg" viewBox="0 0 64 64">
 <path d="m 10.672 0.001 c -1.375 0 -2.672 1.353 -2.672 2.787 l 0 58.42 c 0 1.353 1.375 2.787 2.672 2.787 l 42.655 0 c 1.297 0 2.672 -1.434 2.672 -2.787 l 0.002 -43.21 -18 -18 z" style="fill:#dcdcdc;fill-opacity:1"/>
 <path d="m 42 18 14 14 0 -14 z" style="fill:#000;fill-opacity:0.196"/>
 <path d="m 38 0.001 17.983 17.999 -15.227 0 c -1.346 0 -2.757 -1.427 -2.757 -2.773 z" style="fill:#fff;fill-opacity:0.392"/>
 <path d="m 19 49 c 0.009 -9.135 0.024 -16.361 0 -26 l 22.05 0 c 1.402 1.34 2.67 2.801 3.95 4.255 l 0 21.745 m -4 -13 -18 0 0 12 8.953 0 9.05 0 m -3 -24 -12 0 0 8 12 0 z m -6 1 4 0 0 6 -4 0 z" style="fill:#888;fill-opacity:1"/>
</svg>
